X: 32988
T: Pretty Girls Of Mayo, The
R: reel
M: 4/4
K: Gmajor
|:DG G2 A2 de|fd (3gfe fdcA|DBBG A2 de|fdcA GBAG|
DG G2 A2 de|fd (3gfe fdcA|DBBG A2 de|1 fdcA G3F:|2 fdcA G3d||
|:fgge fdde|fdge fd (3Bcd|fgge fdde|fdcA GABd|
fgge fdde|fdge fdd^c|defg abag|1 fdcA G3d:|2 fdcA BGAF||

